.local/share/icons/Gruvbox-Plus-Dark/actions/16/path-tweak-attract.svg

<svg width="16" height="16" version="1.1" xmlns="http://www.w3.org/2000/svg">
  <defs>
    <style id="current-color-scheme" type="text/css">.ColorScheme-Text { color:#ebdbb2; } .ColorScheme-Highlight { color:#458588; }</style>
  </defs>
  <path class="ColorScheme-Text" d="m0 12c4 0 3-3 8-3s4 3 8 3v2c-5 0-3-3-8-3s-3 3-8 3z" fill="currentColor"/>
  <path class="ColorScheme-Text" d="m16 4c-4 0-3 3-8 3s-4-3-8-3v-2c5 0 3 3 8 3s3-3 8-3z" fill="currentColor"/>
</svg>

<svg xmlns="http://www.w3.org/2000/svg" width="16" height="16" version="1.1">
 <defs>
  <style id="current-color-scheme" type="text/css">
   .ColorScheme-Text { color:#565656; } .ColorScheme-Highlight { color:#4285f4; }
  </style>
 </defs>
 <path style="fill:currentColor" class="ColorScheme-Text" d="M 0,12 C 4,12 3,9 8,9 13,9 12,12 16,12 V 14 C 11,14 13,11 8,11 3,11 5,14 0,14 Z"/>
 <path style="fill:currentColor" class="ColorScheme-Text" d="M 16,4 C 12,4 13,7 8,7 3,7 4,4 0,4 V 2 C 5,2 3,5 8,5 13,5 11,2 16,2 Z"/>
</svg>
